icons/video-24.svg

<svg xmlns="http://www.w3.org/2000/svg" width="24" height="24" viewBox="0 0 24 24"><path d="M0 4.75C0 3.784.784 3 1.75 3h20.5c.966 0 1.75.784 1.75 1.75v14.5A1.75 1.75 0 0122.25 21H1.75A1.75 1.75 0 010 19.25zm1.75-.25a.25.25 0 00-.25.25v14.5c0 .138.112.25.25.25h20.5a.25.25 0 00.25-.25V4.75a.25.25 0 00-.25-.25z"/><path d="M9 15.584V8.416a.5.5 0 01.77-.42l5.576 3.583a.5.5 0 010 .842L9.77 16.005a.5.5 0 01-.77-.42z"/></svg>

<svg xmlns="http://www.w3.org/2000/svg" width="24" height="24" viewBox="0 0 24 24">
  <defs/>
  <path d="M0,4.75 C0,3.784 0.784,3 1.75,3 L22.25,3 C23.216,3 24,3.784 24,4.75 L24,19.25 C24,20.216 23.216,21 22.25,21 L1.75,21 C0.784,21 0,20.216 0,19.25 Z M1.75,4.5 C1.612,4.5 1.5,4.612 1.5,4.75 L1.5,19.25 C1.5,19.388 1.612,19.5 1.75,19.5 L22.25,19.5 C22.388,19.5 22.5,19.388 22.5,19.25 L22.5,4.75 C22.5,4.612 22.388,4.5 22.25,4.5 Z"/>
  <path d="M9,15.584 L9,8.416 A0.5 0.5 0 0 1 9.77,7.996 L15.346,11.579 A0.5 0.5 0 0 1 15.346,12.421 L9.77,16.005 A0.5 0.5 0 0 1 9,15.585 Z"/>
</svg>
